icons/midnadark/actions/24/help-whatsthis.svg

<?xml version="1.0" encoding="UTF-8" standalone="no"?>
<!-- Created with Inkscape (http://www.inkscape.org/) -->

<svg
   xmlns:dc="http://purl.org/dc/elements/1.1/"
   xmlns:cc="http://creativecommons.org/ns#"
   xmlns:rdf="http://www.w3.org/1999/02/22-rdf-syntax-ns#"
   xmlns:svg="http://www.w3.org/2000/svg"
   xmlns="http://www.w3.org/2000/svg"
   xmlns:sodipodi="http://sodipodi.sourceforge.net/DTD/sodipodi-0.dtd"
   xmlns:inkscape="http://www.inkscape.org/namespaces/inkscape"
   width="22"
   height="22"
   id="svg3815"
   version="1.1"
   inkscape:version="0.91 r13725"
   sodipodi:docname="help-whatsthis.svg">
  <defs
     id="defs3817" />
  <sodipodi:namedview
     id="base"
     pagecolor="#ffffff"
     bordercolor="#666666"
     borderopacity="1.0"
     inkscape:pageopacity="0.0"
     inkscape:pageshadow="2"
     inkscape:zoom="32"
     inkscape:cx="17.620191"
     inkscape:cy="8.2068299"
     inkscape:document-units="px"
     inkscape:current-layer="layer1"
     showgrid="true"
     fit-margin-top="0"
     fit-margin-left="0"
     fit-margin-right="0"
     fit-margin-bottom="0"
     inkscape:window-width="1920"
     inkscape:window-height="1021"
     inkscape:window-x="-4"
     inkscape:window-y="0"
     inkscape:window-maximized="1"
     inkscape:showpageshadow="false"
     borderlayer="false"
     showguides="true"
     inkscape:object-nodes="true"
     inkscape:snap-bbox="true">
    <sodipodi:guide
       position="2.0000044,19.999979"
       orientation="18,0"
       id="guide3338" />
    <sodipodi:guide
       position="2.0000044,1.9999785"
       orientation="0,18"
       id="guide3340" />
    <sodipodi:guide
       position="20.000004,1.9999785"
       orientation="-18,0"
       id="guide3342" />
    <sodipodi:guide
       position="20.000004,19.999979"
       orientation="0,-18"
       id="guide3344" />
    <sodipodi:guide
       position="3.0000044,18.999979"
       orientation="16,0"
       id="guide3346" />
    <sodipodi:guide
       position="3.0000044,2.9999785"
       orientation="0,16"
       id="guide3348" />
    <sodipodi:guide
       position="19.000004,2.9999785"
       orientation="-16,0"
       id="guide3350" />
    <sodipodi:guide
       position="17,19"
       orientation="0,-16"
       id="guide3352" />
    <inkscape:grid
       type="xygrid"
       id="grid3354" />
    <sodipodi:guide
       position="11,12"
       orientation="0,0"
       id="guide4216" />
    <sodipodi:guide
       position="6.0078125,19"
       orientation="0,-1.0019531"
       id="guide4174" />
  </sodipodi:namedview>
  <metadata
     id="metadata3820">
    <rdf:RDF>
      <cc:Work
         rdf:about="">
        <dc:format>image/svg+xml</dc:format>
        <dc:type
           rdf:resource="http://purl.org/dc/dcmitype/StillImage" />
        <dc:title></dc:title>
      </cc:Work>
    </rdf:RDF>
  </metadata>
  <g
     inkscape:label="Capa 1"
     inkscape:groupmode="layer"
     id="layer1"
     transform="translate(-461.71429,-525.79075)">
    <path
       style="fill:#f2f2f2;fill-rule:evenodd;stroke:none;stroke-width:1px;stroke-linecap:butt;stroke-linejoin:miter;stroke-opacity:1"
       d="m 474.71415,536.79075 0.004,9.10005 2.72619,-3.28947 4.26975,-0.21055 -7.00004,-5.60003 z"
       id="path4185"
       inkscape:connector-curvature="0" />
    <rect
       style="opacity:1;fill:#f2f2f2;fill-opacity:1;stroke:none"
       id="rect4120"
       width="2"
       height="2"
       x="471.71429"
       y="531.79071" />
    <rect
       style="opacity:1;fill:#f2f2f2;fill-opacity:1;stroke:none"
       id="rect4124"
       width="2"
       height="7"
       x="471.71429"
       y="534.79071" />
    <path
       style="opacity:1;fill:#f2f2f2;fill-opacity:1;stroke:none"
       d="M 11 3 C 6.568 3 3 6.568 3 11 C 3 15.432 6.568 19 11 19 C 11.339463 19 11.67189 18.972289 12 18.931641 L 12 17.921875 C 11.672498 17.968487 11.340784 18 11 18 C 7.122 18 4 14.878 4 11 C 4 7.122 7.122 4 11 4 C 14.878 4 18 7.122 18 11 C 18 11.696167 17.894565 12.366247 17.707031 13 L 18.740234 13 C 18.903948 12.360349 19 11.692084 19 11 C 19 6.568 15.432 3 11 3 z "
       transform="translate(461.71429,525.79075)"
       id="rect4129" />
  </g>
</svg>

<svg xmlns="http://www.w3.org/2000/svg" viewBox="0 0 22 22"><g transform="translate(-461.71-525.79)" fill="#f2f2f2"><path d="m474.71 536.79l.004 9.1 2.726-3.289 4.27-.211-7-5.6" fill-rule="evenodd"/><path d="m471.71 531.79h2v2h-2z"/><path d="m471.71 534.79h2v7h-2z"/><path d="m11 3c-4.432 0-8 3.568-8 8 0 4.432 3.568 8 8 8 .339 0 .672-.028 1-.068v-1.01c-.328.047-.659.078-1 .078-3.878 0-7-3.122-7-7 0-3.878 3.122-7 7-7 3.878 0 7 3.122 7 7 0 .696-.105 1.366-.293 2h1.033c.164-.64.26-1.308.26-2 0-4.432-3.568-8-8-8" transform="translate(461.71 525.79)"/></g></svg>
